storage/app/icons/phosphoricons/duotone/pint-glass-duotone.svg

<svg xmlns="http://www.w3.org/2000/svg" fill="currentColor" viewBox="0 0 256 256"><path d="m195.2 72-18.35 153a8 8 0 0 1-7.95 7H87.1a8 8 0 0 1-7.95-7L60.8 72Z" opacity=".2"/><path d="M206 26.69a8 8 0 0 0-6-2.69H56a8 8 0 0 0-7.94 9l23.15 193a16 16 0 0 0 15.89 14h81.8a16 16 0 0 0 15.89-14.09L207.94 33a8 8 0 0 0-1.94-6.31M191 40l-2.9 24H67.9L65 40Zm-22.1 184H87.1L69.82 80h116.36Z"/></svg>

<svg xmlns="http://www.w3.org/2000/svg" viewBox="0 0 256 256" fill="currentColor"><path d="M195.2,72,176.85,225A8,8,0,0,1,168.9,232H87.1A8,8,0,0,1,79.15,225L60.8,72Z" opacity="0.2"/><path d="M206,26.69A8,8,0,0,0,200,24H56a8,8,0,0,0-7.94,9l23.15,193A16,16,0,0,0,87.1,240h81.8a16,16,0,0,0,15.89-14.09L207.94,33A8,8,0,0,0,206,26.69ZM191,40,188.1,64H67.9L65,40ZM168.9,224H87.1L69.82,80H186.18Z"/></svg>
